img/social/vk.svg

<svg width="50" height="50" viewBox="0 0 50 50" fill="none" xmlns="http://www.w3.org/2000/svg">
<rect width="50" height="50" rx="12" fill="#4169E1"/>
<path d="M37.8712 34.9545C37.1963 35.0569 33.8954 34.9545 33.7241 34.9545C32.8708 34.9662 32.0476 34.6144 31.433 33.9753C30.7369 33.2522 30.1147 32.4552 29.4345 31.698C29.2334 31.4682 29.0156 31.2559 28.7833 31.0633C28.2402 30.6107 27.7024 30.7132 27.4466 31.4049C27.2468 32.1523 27.1075 32.9171 27.0301 33.6906C26.9853 34.3908 26.574 34.8292 25.8463 34.8776C25.3955 34.9032 24.9446 34.9118 24.4991 34.9004C22.8753 34.8892 21.277 34.4629 19.8352 33.6564C18.2751 32.7179 16.9159 31.4346 15.8462 29.8905C14.0877 27.4653 12.6825 24.8009 11.4275 22.0541C11.3616 21.9174 10.075 18.9627 10.0434 18.8233C9.92737 18.3564 10.0434 17.9095 10.3993 17.7558C10.626 17.6619 14.8655 17.7558 14.9366 17.7558C15.2518 17.7529 15.5597 17.8583 15.8156 18.0569C16.0716 18.2554 16.2624 18.5368 16.3603 18.8603C17.144 21.0268 18.217 23.0579 19.5452 24.8892C19.7311 25.1341 19.9486 25.3488 20.1911 25.5268C20.5365 25.7801 20.8634 25.6919 21.0058 25.2621C21.1745 24.6657 21.2737 24.0489 21.3011 23.4261C21.3248 22.1907 21.3011 21.3766 21.2378 20.144C21.1956 19.3527 20.9372 18.6582 19.8563 18.4361C19.5241 18.3735 19.4951 18.0775 19.7086 17.7814C20.1542 17.1666 20.7632 17.0698 21.4461 17.0328C22.4637 16.9702 23.4814 17.0129 24.4991 17.0328H24.7205C25.1635 17.0311 25.6053 17.0797 26.0388 17.178C26.295 17.2339 26.5277 17.3778 26.702 17.5881C26.8764 17.7984 26.9831 18.0639 27.0064 18.3451C27.0584 18.6568 27.0805 18.9735 27.0723 19.2901C27.0459 20.6393 26.9853 21.9857 26.9721 23.335C26.9599 23.8692 27.0051 24.4032 27.1065 24.9262C27.2515 25.6435 27.7077 25.8228 28.1611 25.3048C28.7483 24.635 29.2869 23.9175 29.772 23.1585C30.6299 21.7752 31.3376 20.29 31.8812 18.7322C32.1765 17.9323 32.4085 17.7558 33.1994 17.7558H37.6972C37.9646 17.7508 38.2313 17.7891 38.4881 17.8697C38.5791 17.8955 38.6641 17.9413 38.7378 18.0042C38.8116 18.0671 38.8725 18.1458 38.9168 18.2353C38.9611 18.3248 38.9879 18.4232 38.9953 18.5244C39.0027 18.6256 38.9907 18.7273 38.9601 18.8233C38.7386 19.8879 38.206 20.7959 37.6418 21.6698C36.727 23.0703 35.762 24.4337 34.8261 25.8115C34.7077 25.9942 34.5994 26.1843 34.5018 26.3808C34.1485 27.0668 34.1749 27.451 34.6864 28.0232C35.5037 28.9284 36.3763 29.7795 37.1646 30.7132C37.7434 31.3919 38.2657 32.1244 38.7254 32.9021C39.3028 33.8671 38.9469 34.7894 37.8712 34.9545Z" fill="white"/>
</svg>

<svg width="50" height="50" fill="none" xmlns="http://www.w3.org/2000/svg"><rect width="50" height="50" rx="12" fill="#4169E1"/><path d="M37.871 34.955c-.675.102-3.976 0-4.147 0a3.119 3.119 0 0 1-2.291-.98c-.696-.723-1.318-1.52-1.998-2.277a5.702 5.702 0 0 0-.652-.635c-.543-.452-1.08-.35-1.336.342-.2.747-.34 1.512-.417 2.286-.045.7-.456 1.138-1.184 1.187-.45.025-.901.034-1.347.022a9.678 9.678 0 0 1-4.664-1.244 13.055 13.055 0 0 1-3.989-3.765c-1.758-2.426-3.164-5.09-4.418-7.837-.066-.137-1.353-3.091-1.385-3.23-.116-.468 0-.915.356-1.068.227-.094 4.467 0 4.538 0a1.41 1.41 0 0 1 .879.3 1.6 1.6 0 0 1 .544.804 24.408 24.408 0 0 0 3.185 6.03c.186.244.404.459.646.637.346.253.672.165.815-.265a8.049 8.049 0 0 0 .295-1.836c.024-1.235 0-2.05-.063-3.282-.042-.791-.3-1.486-1.382-1.708-.332-.063-.36-.358-.147-.655.445-.614 1.054-.711 1.737-.748 1.018-.063 2.035-.02 3.053 0h.222c.442-.002.884.047 1.318.145.256.056.489.2.663.41.174.21.281.476.304.757.052.312.075.629.066.945-.026 1.35-.087 2.696-.1 4.045a7.468 7.468 0 0 0 .134 1.591c.145.718.602.897 1.055.379a17.78 17.78 0 0 0 1.611-2.146 22.402 22.402 0 0 0 2.11-4.427c.294-.8.526-.976 1.317-.976h4.498c.268-.005.534.033.791.114a.664.664 0 0 1 .25.134.726.726 0 0 1 .179.231.78.78 0 0 1 .043.588c-.221 1.065-.754 1.973-1.318 2.847-.915 1.4-1.88 2.764-2.816 4.141a5.75 5.75 0 0 0-.324.57c-.354.686-.327 1.07.184 1.642.818.905 1.69 1.756 2.479 2.69a15.627 15.627 0 0 1 1.56 2.19c.578.964.222 1.886-.854 2.052Z" fill="#fff"/></svg>
